X:43
T:Happy Go Lucky, The     Requested by Debbie Budd
R:Clog
O:Cape Breton
M:4/4
C:Traditional-Natalie MacMaster
K:F maj.
C>FA,>C F>Ac>B|A>cf>a c'4|3(bd'b) e>g 3(faf) c>A|d>Bc>A G>ABG|
C>FA>C F>Ac>B|A>cf>a c'4|3(bd'b) e>g 3(faf) c>A|A2 F2 F3:||c'|
f'>ae>g f>cA>c|f>cg>c a4|3(gbg e>g 3(faf) c>A|d>Bc>A G>AB1.c'|
f'>c'e>g f>ca>c|f>cg>c a4|3(gbg) e>g 3(faf)| c>B|A2 F2 F3:||
2.G|C>FA,>C F>Ac>B|A>cf>a c'4|3(bd'b) e>g 3(faf) c>B|A2 F2 F3||
